X:1
T:Old 44th, CMD
T:Psalmes, 1556
T:Old 44th, CMD
T:Public Domain
C:Psalmes, 1556
Z:Public Domain
%%score ( 1 2 ) ( 3 4 )
L:1/8
M:4/4
K:A
V:1 treble 
V:2 treble 
V:3 bass 
V:4 bass 
V:1
 [EA]2 [EA]2 [EG]2 [CA]2 | [DF]2 [CE]2 [B,E]2 [EA]2 | [Ee]2 [Fd]2 [Ec]2 [FB]2 | [EB]2 [CA]6 | %4
 [FA]2 [EA]2 [DG]2 [EA]2 | [DF]2 [B,E]2 [CE]2 [CA]2 | [Ec]2 [Dd]2 [Ec]2 B2 x | z D [CA]6 | %8
 [FA]2 [EA]2 [EB]2 [Ec]2 | [Ad]2 [Ge]2 [Fd]2 [Ec]2 | [EB]2 [CA]2 [DF]2 [DG]2 | [CA]2 [EB]6 | %12
 [CA]2 E2 [DF]2 [DG]2 | [CA]2 [EB]2 [Ec]2 [EB]2 | (CD) [EG]2 [EA]2 [FB]2 | [EB]2 [CA]6 |] %16
V:2
 x8 | x8 | x8 | x8 | x8 | x8 | x6 E3 | B2 x6 | x8 | x8 | x8 | x8 | x2 E2 x4 | x8 | A2 x6 | x8 |] %16
V:3
 [A,,C]2 [C,A,]2 [E,B,]2 [F,A,]2 | [D,A,]2 [E,A,]2 [E,G,]2 [C,A,]2 | %2
 [C,A,]2 (F,G,) [C,A,]2 [D,A,]2 | [E,G,]2 [A,,A,]6 | [D,A,]2 [A,,C]2 [B,,B,]2 [C,A,]2 | %5
 [D,A,]2 [E,G,]2 A,2 [F,A,]2 | [C,E,]2 (F,G,) [A,,A,]2 [E,A,]2 x | [E,G,]2 [A,,A,]6 | %8
 [D,A,]2 [C,A,]2 [E,G,]2 A,2 | [F,A,]2 [E,B,]2 ([F,A,][G,B,]) [A,C]2 | %10
 [E,G,]2 [F,A,]2 [D,A,]2 [B,,B,]2 | [F,A,]2 [E,G,]6 | (A,,B,,) [C,A,]2 (DC) [E,B,]2 | %13
 [F,A,]2 [E,G,]2 [A,,A,]2 [E,G,]2 | [F,A,]2 [E,B,]2 [C,A,]2 [D,A,]2 | [E,G,]2 [A,,A,]6 |] %16
V:4
 x8 | x8 | x2 B,,2 x4 | x8 | x8 | x4 A,2 x2 | x2 B,,2 x5 | x8 | x6 A,2 | x8 | x8 | x8 | %12
 A,2 x D,2 x3 | x8 | x8 | x8 |] %16

